X: 569
T: Wan diao
%%abc-version 2.0
%%abcx-abcm2ps-target-version 5.9.1 (29 Sep 2008)
%%abc-creator hum2abc beta
%%abcx-conversion-date 2013/10/02 07:52:30
%%abc-edited-by Helmut Schaffrath
%%humdrum-veritas 529519162
%%humdrum-veritas-data 2726199625
%%continueall 1
%%barnumbers 0
L: 1/16
M: 2/4
K: A
e2> c2 B3 c [I:setbarnb 1]| 
A2 F2B4 | 
e2 c B e2 c B | 
A2 A FB4 | 
e2 e2 e2 e2 | 
F2 B B B A G F | 
E E E E B2 G F | 
E8 |]  



